X: 30784
T: Osprey, The
R: polka
M: 2/4
K: Gmajor
A>^GAB A2 B/c/d|e>^def e2 =dB|G2 G>F G2 G/A/B|dBA>B E2 EG|
A2 AB A2 Bd|e>fge a3 b|aged B/c/e EG|A2 A>B A2:|
g2 fe ab/a/ ef|g2 fe a2 d>c|B2 AB EF/E/ EG|B2 A>B d2 d/e/f|
g2 g/f/e a2 e>f|ga/g/ fe a2 e>f|g2 e>d B/c/e EG|A2 AA/A/ A2:|

